material/.icons/material/flash-alert.svg

<svg xmlns="http://www.w3.org/2000/svg" viewBox="0 0 24 24"><path d="M5 2v11h3v9l7-12h-4l4-8m2 13h2v2h-2v-2m0-8h2v6h-2V7z"/></svg>

<?xml version="1.0" encoding="UTF-8"?><!DOCTYPE svg PUBLIC "-//W3C//DTD SVG 1.1//EN" "http://www.w3.org/Graphics/SVG/1.1/DTD/svg11.dtd"><svg xmlns="http://www.w3.org/2000/svg" xmlns:xlink="http://www.w3.org/1999/xlink" version="1.1" id="mdi-flash-alert" width="24" height="24" viewBox="0 0 24 24"><path d="M5,2V13H8V22L15,10H11L15,2M17,15H19V17H17V15M17,7H19V13H17V7Z" /></svg>
